src/components/shared/user-community/images/sealos.inline.svg

<svg xmlns="http://www.w3.org/2000/svg" fill="none" preserveAspectRatio="xMinYMid meet" viewBox="0 0 410 410"><path fill="url(#a)" d="M354.489 137.618a63.667 63.667 0 0 0-3.36-8.518v-.178a62.173 62.173 0 0 0-29.037-28.771 61.87 61.87 0 0 0-40.563-4.46 62.036 62.036 0 0 0-34.556 21.779 62.425 62.425 0 0 0-13.615 38.604 61.817 61.817 0 0 0 1.415 13.133c.004.059.004.118 0 .177.354 1.775.884 3.55 1.415 5.324a96.339 96.339 0 0 1 1.805 38.258 96.208 96.208 0 0 1-13.24 35.921 95.862 95.862 0 0 1-26.179 27.87 95.51 95.51 0 0 1-34.951 15.381 95.343 95.343 0 0 1-38.162.446 95.493 95.493 0 0 1-35.299-14.561 95.847 95.847 0 0 1-26.818-27.25 96.212 96.212 0 0 1-14.07-35.603 159.181 159.181 0 0 0 22.792 61.899 158.562 158.562 0 0 0 45.891 47.26 157.935 157.935 0 0 0 61.069 24.465 157.732 157.732 0 0 0 65.706-2.554 158.066 158.066 0 0 0 59-29.132 158.706 158.706 0 0 0 42.111-50.682 159.278 159.278 0 0 0 17.952-63.483 159.354 159.354 0 0 0-9.306-65.325Z"/><path fill="url(#b)" d="M103.211 191.034c20.513 29.991 62.953 27.329 62.953 27.329-10.61-10.293-17.507-19.698-18.214-46.495-.708-26.797-15.915-33.896-15.915-33.896 27.232-17.214 17.506-35.848 16.622-56.611-.53-12.955 7.073-22.538 13.086-28.04-34.605 5.203-65.874 23.609-87.288 51.381s-31.32 62.767-27.654 97.689c2.476-6.921 37.489-39.042 56.41-11.357Z"/><path fill="url(#c)" d="M354.489 137.618a63.667 63.667 0 0 0-3.36-8.518v-.178a62.173 62.173 0 0 0-29.037-28.771 61.87 61.87 0 0 0-40.563-4.46 62.036 62.036 0 0 0-34.556 21.779 62.425 62.425 0 0 0-13.615 38.604 61.817 61.817 0 0 0 1.415 13.133c.004.059.004.118 0 .177.354 1.775.884 3.55 1.415 5.324a96.339 96.339 0 0 1 1.805 38.258 96.208 96.208 0 0 1-13.24 35.921 95.862 95.862 0 0 1-26.179 27.87 95.51 95.51 0 0 1-34.951 15.381 95.343 95.343 0 0 1-38.162.446 95.493 95.493 0 0 1-35.299-14.561 95.847 95.847 0 0 1-26.818-27.25 96.212 96.212 0 0 1-14.07-35.603 159.181 159.181 0 0 0 22.792 61.899 158.562 158.562 0 0 0 45.891 47.26 157.935 157.935 0 0 0 61.069 24.465 157.732 157.732 0 0 0 65.706-2.554 158.066 158.066 0 0 0 59-29.132 158.706 158.706 0 0 0 42.111-50.682 159.278 159.278 0 0 0 17.952-63.483 159.354 159.354 0 0 0-9.306-65.325Z"/><path fill="url(#d)" fill-rule="evenodd" d="M328.142 180.387c0 77.33-62.466 140.019-139.521 140.019-40.903 0-77.695-17.664-103.215-45.805a95.473 95.473 0 0 0 40.06 17.982 95.324 95.324 0 0 0 38.162-.446 95.49 95.49 0 0 0 34.952-15.381 95.868 95.868 0 0 0 26.178-27.869 96.225 96.225 0 0 0 13.241-35.922 96.352 96.352 0 0 0-1.806-38.257c-.531-1.775-1.061-3.55-1.415-5.324a1.322 1.322 0 0 0 0-.178 61.807 61.807 0 0 1-1.414-13.132 62.43 62.43 0 0 1 13.614-38.605 62.045 62.045 0 0 1 34.556-21.779 61.854 61.854 0 0 1 17.045-1.5c18.523 23.764 29.563 53.686 29.563 86.197Z" clip-rule="evenodd"/><defs><linearGradient id="a" x1="339.547" x2="113.012" y1="112.454" y2="324.642" gradientUnits="userSpaceOnUse"><stop stop-color="#6378FF"/><stop offset="1" stop-color="#6312FF"/></linearGradient><linearGradient id="b" x1="142.642" x2="8.776" y1="34.665" y2="244.989" gradientUnits="userSpaceOnUse"><stop stop-color="#0AA3F9"/><stop offset="1" stop-color="#B5B4FF"/></linearGradient><linearGradient id="c" x1="411.002" x2="197.415" y1="358.284" y2="85.94" gradientUnits="userSpaceOnUse"><stop stop-color="#0AA3F9"/><stop offset="1" stop-color="#B5B4FF"/></linearGradient><linearGradient id="d" x1="290.963" x2="93.598" y1="94.166" y2="295.111" gradientUnits="userSpaceOnUse"><stop stop-color="#7ABBFD"/><stop offset="1" stop-color="#7ABBFD" stop-opacity="0"/></linearGradient></defs></svg>

<svg  viewBox="0 0 410 410" preserveAspectRatio="xMinYMid meet" fill="none" xmlns="http://www.w3.org/2000/svg">
<path d="M354.489 137.618C353.575 134.702 352.452 131.855 351.129 129.1V128.922C344.958 116.322 334.726 106.183 322.092 100.151C309.458 94.1191 295.164 92.5475 281.529 95.6911C267.894 98.8347 255.716 106.509 246.973 117.47C238.229 128.43 233.431 142.034 233.358 156.074C233.359 160.49 233.834 164.893 234.773 169.207C234.777 169.266 234.777 169.325 234.773 169.384C235.127 171.159 235.657 172.934 236.188 174.708C239.344 187.21 239.958 200.221 237.993 212.966C236.029 225.71 231.526 237.927 224.753 248.887C217.981 259.847 209.077 269.326 198.574 276.757C188.071 284.187 176.184 289.419 163.623 292.138C151.061 294.857 138.082 295.009 125.461 292.584C112.84 290.159 100.835 285.206 90.1622 278.023C79.4899 270.839 70.369 261.572 63.3441 250.773C56.3191 239.974 51.534 227.865 49.2744 215.17C52.4697 237.177 60.2344 258.265 72.0659 277.069C83.8973 295.873 99.5317 311.974 117.957 324.329C136.382 336.685 157.188 345.02 179.026 348.794C200.865 352.568 223.25 351.698 244.732 346.24C266.214 340.781 286.314 330.856 303.732 317.108C321.15 303.359 335.496 286.092 345.843 266.426C356.189 246.76 362.305 225.132 363.795 202.943C365.284 180.755 362.114 158.499 354.489 137.618Z" fill="url(#paint0_linear_504_245)"/>
<path d="M103.211 191.034C123.724 221.025 166.164 218.363 166.164 218.363C155.554 208.07 148.657 198.665 147.95 171.868C147.242 145.071 132.035 137.972 132.035 137.972C159.267 120.758 149.541 102.124 148.657 81.361C148.127 68.4061 155.73 58.823 161.743 53.3217C127.138 58.5238 95.8688 76.9295 74.4548 104.702C53.0408 132.474 43.1345 167.469 46.801 202.391C49.2767 195.47 84.2897 163.349 103.211 191.034Z" fill="url(#paint1_linear_504_245)"/>
<path d="M354.489 137.618C353.575 134.702 352.452 131.855 351.129 129.1V128.922C344.958 116.322 334.726 106.183 322.092 100.151C309.458 94.1191 295.164 92.5475 281.529 95.6911C267.894 98.8347 255.716 106.509 246.973 117.47C238.229 128.43 233.431 142.034 233.358 156.074C233.359 160.49 233.834 164.893 234.773 169.207C234.777 169.266 234.777 169.325 234.773 169.384C235.127 171.159 235.657 172.934 236.188 174.708C239.344 187.21 239.958 200.221 237.993 212.966C236.029 225.71 231.526 237.927 224.753 248.887C217.981 259.847 209.077 269.326 198.574 276.757C188.071 284.187 176.184 289.419 163.623 292.138C151.061 294.857 138.082 295.009 125.461 292.584C112.84 290.159 100.835 285.206 90.1622 278.023C79.4899 270.839 70.369 261.572 63.3441 250.773C56.3191 239.974 51.534 227.865 49.2744 215.17C52.4697 237.177 60.2344 258.265 72.0659 277.069C83.8973 295.873 99.5317 311.974 117.957 324.329C136.382 336.685 157.188 345.02 179.026 348.794C200.865 352.568 223.25 351.698 244.732 346.24C266.214 340.781 286.314 330.856 303.732 317.108C321.15 303.359 335.496 286.092 345.843 266.426C356.189 246.76 362.305 225.132 363.795 202.943C365.284 180.755 362.114 158.499 354.489 137.618Z" fill="url(#paint2_linear_504_245)"/>
<path fill-rule="evenodd" clip-rule="evenodd" d="M328.142 180.387C328.142 257.717 265.676 320.406 188.621 320.406C147.718 320.406 110.926 302.742 85.406 274.601C86.956 275.788 88.5438 276.929 90.1675 278.022C100.84 285.206 112.845 290.158 125.466 292.583C138.088 295.008 151.066 294.857 163.628 292.137C176.19 289.418 188.077 284.187 198.58 276.756C209.082 269.325 217.986 259.847 224.758 248.887C231.531 237.927 236.034 225.71 237.999 212.965C239.963 200.22 239.349 187.209 236.193 174.708C235.662 172.933 235.132 171.158 234.778 169.384C234.782 169.325 234.782 169.265 234.778 169.206C233.839 164.892 233.365 160.49 233.364 156.074C233.437 142.034 238.234 128.43 246.978 117.469C255.722 106.509 267.899 98.8341 281.534 95.6904C287.158 94.3939 292.894 93.8995 298.579 94.1892C317.102 117.954 328.142 147.876 328.142 180.387Z" fill="url(#paint3_linear_504_245)"/>
<defs>
<linearGradient id="paint0_linear_504_245" x1="339.547" y1="112.454" x2="113.012" y2="324.642" gradientUnits="userSpaceOnUse">
<stop stop-color="#6378FF"/>
<stop offset="1" stop-color="#6312FF"/>
</linearGradient>
<linearGradient id="paint1_linear_504_245" x1="142.642" y1="34.665" x2="8.7762" y2="244.989" gradientUnits="userSpaceOnUse">
<stop stop-color="#0AA3F9"/>
<stop offset="1" stop-color="#B5B4FF"/>
</linearGradient>
<linearGradient id="paint2_linear_504_245" x1="411.002" y1="358.284" x2="197.415" y2="85.9404" gradientUnits="userSpaceOnUse">
<stop stop-color="#0AA3F9"/>
<stop offset="1" stop-color="#B5B4FF"/>
</linearGradient>
<linearGradient id="paint3_linear_504_245" x1="290.963" y1="94.1656" x2="93.5983" y2="295.111" gradientUnits="userSpaceOnUse">
<stop stop-color="#7ABBFD"/>
<stop offset="1" stop-color="#7ABBFD" stop-opacity="0"/>
</linearGradient>
</defs>
</svg>
